X:1
T:Nella Fantasia (Gabriel's Oboe)
T:Nella Fantasia (Gabriel's Oboe)
T:From "The Mission"
T:Ennio Morricone
C:Ennio Morricone
%%score 1 2 3 4
L:1/8
Q:1/4=60
M:4/4
K:Ab
V:1 treble transpose=-2 nm="B♭ Cornet" snm="CR"
V:2 treble transpose=-7 nm="Horn in F" snm="FH"
V:3 bass nm="Trombone" snm="TN"
V:4 bass nm="Tuba" snm="TB"
V:1
[K:Bb]"^Cantabile" z8 | z8 | z8 | z8 | z8 |"^A"!mf! FG (3FEF-!<(! F2- F>F!<)! | (3BcB (3ABA G3 F | %7
 F2 z F (3BcB (3ABA |!<(! G4- GB- (3BAG!<)! | (3FEF-!>(! F4 z F!>)! | dccB B3 F | %11
 dccB B2 A/B/A/B/ |!>(! G4 z GBe!>)! | e>d!<(! d4 B2!<)! |!<(! g4- g3 f!<)! |!>(! f4 z2 ed!>)! | %16
!<(! c6 d2!<)! |!>(! d8!>)! | z2 z!<(! B e2 d2!<)! | c4- c3 B |!>(! B6- B z!>)! | %21
"^B"!mf! FG (3FEF-!<(! F2- F>F!<)! | (3BcB (3ABA G3 F | F2 z F (3BcB (3ABA | %24
!<(! G4- GB- (3BAG!<)! | (3FEF-!>(! F4 z F!>)! | dccB B3 F | dccB B2 A/B/A/B/ | G4 z GBe | %29
 e>d!<(! d4 B2!<)! | g4- g3 f |!>(! f8!>)! | !fermata!f4 z4 |"^C" FG (3FEF-!<(! F2- F>F!<)! | %34
 (3BcB (3ABA!>(! G3 F!>)! | F2 z F (3BcB (3ABA | G4- GB- (3BAG | (3FEF- F4 z F | dccB B3 F | %39
 dccB B2 A/B/A/B/ |!>(! G4 z GBe!>)! | e>d!<(! d4 B2!<)! | g4- g3 f |!>(! f4 z2 ed!>)! | c6 d2 | %45
 d8 | z2 z B e2 d2 | c4- c3 B | !fermata!B8 |] %49
V:2
[K:Eb]!mp!!<(! G3 F/G/ A3 F!<)! |!>(! B3 A/B/ c3 B/c/!>)! |!<(! d3 B e2 d2!<)! |!>(! c6 B2!>)! | %4
!<(! e4 d3 z!<)! | G3 F/G/ A3- A/B,/ | (3EFE (3DED E2 DE | F2 z B, (3EFE (3DED | E4 E4 | G4 F3 z | %10
!<(! G4 B4!<)! |!>(! c4 B4!>)! |!<(! B2 A2 G2 F2!<)! |!>(! B4 c2 d2!>)! |!<(! e4 d4!<)! | %15
!>(! e4 c4!>)! |!<(! e4 d4!<)! | d6 c2 | c4 c2 c2 | e4 d4 | A3 F G3 z |!<(! G3 F/G/ A3- A/B,/!<)! | %22
!>(! (3EFE (3DED E2 DE!>)! | F2 z B, (3EFE (3DED |!<(! E4 E4!<)! |!>(! G4 F4!>)! |!<(! G4 B4!<)! | %27
!>(! c4 B4!>)! |!<(! B2 A2 G2 F2!<)! |!>(! B4 c2 d2!>)! |!<(! e4 d4!<)! |!>(! e8!>)! | %32
 !fermata!d4 z4 |!<(! G3 F/G/ A3- A/B,/!<)! | (3E!>(!FE (3DED E2 DE!>)! | %35
!<(! F2 z B, (3EFE (3DED!<)! |!>(! E4 E4!>)! |!<(! G4 F3 z!<)! |!>(! G4 B4!>)! |!<(! c4 B4!<)! | %40
!>(! B2 A2 G2 F2!>)! |!<(! B4 c2 d2!<)! |!>(! e4 d4!>)! |!<(! e4 c4!<)! |!>(! e4 d4!>)! | d6 c2 | %46
 c4 c2 c2 | e4 d4 | A4 !fermata!G4 |] %49
V:3
!mp!!<(! E,2 E,2 E,2 E,2!<)! |!>(! A,2 A,2 A,2 A,2!>)! |!<(! B,2 B,2 C2 C2!<)! | %3
!>(! A,2 A,2 A,2 A,2!>)! |!<(! C4 B,3 z!<)! | E,2 E,2 E,2 E,2 | A,2 A,2 A,2 G,A, | %7
 G,2 G,2 A,2 A,2 | A,4 A,4 | B,3 F, G,3 z |!<(! A,,4 C,4!<)! |!>(! C,4 C,4!>)! |!<(! D,4 D,4!<)! | %13
!>(! A,,4 C,4!>)! |!<(! D,4 B,,4!<)! |!>(! C,4 D,4!>)! |!<(! E,8!<)! | C4 CB, A,2 | A,4 D2 D2 | %19
 D4 B,4 | F,4 E,3 z |!<(! E,2 E,2 E,2 E,2!<)! |!>(! A,2 A,2 A,2 G,A,!>)! | G,2 G,2 A,2 A,2 | %24
!<(! A,4 A,4!<)! |!>(! A,2 A,2 E,4!>)! |!<(! A,,4 C,4!<)! |!>(! C,4 C,4!>)! |!<(! D,4 D,4!<)! | %29
!>(! A,,4 C,4!>)! |!<(! D,4 B,,4!<)! |!>(! C8!>)! | !fermata!B,4 z4 |!<(! E,2 E,2 E,2 E,2!<)! | %34
!>(! A,2 A,2 A,2 G,A,!>)! |!<(! G,2 G,2 A,2 A,2!<)! |!>(! A,4 A,4!>)! |!<(! B,3 F, G,3 z!<)! | %38
!>(! A,,4 C,4!>)! |!<(! C,4 C,4!<)! |!>(! D,4 D,4!>)! |!<(! A,,4 C,4!<)! |!>(! A,4 B,4!>)! | %43
!<(! C4 D4!<)! |!>(! E,8!>)! | C4 CB, A,2 | A,4 D2 D2 | D4 B,4 | F,4 !fermata!E,4 |] %49
V:4
!mp!!<(! A,,2 A,,2 B,,2 B,,2!<)! |!>(! C,2 C,2 D,2 D,2!>)! |!<(! D,2 D,2 C,2 C,2!<)! | %3
!>(! D,2 D,2 D,2 D,2!>)! |!<(! E,4 E,,3 z!<)! | A,,2 A,,2 B,,2 B,,2 | C,2 C,2 D,4 | %7
 D,2 D,2 C,2 C,2 | D,2 D,4 C,2 | B,,2 B,,2 E,,3 z |!<(! A,,4 G,,4!<)! |!>(! F,,4 E,,4!>)! | %12
!<(! D,,4 D,,4!<)! |!>(! A,,2 G,,2 F,,2 E,,2!>)! |!<(! D,,8!<)! |!>(! C,,4 D,,4!>)! | %16
!<(! E,,8!<)! | =E,,6 F,,2 | F,,2 _E,,2 D,,2 D,,2 | E,,4 E,,4 | A,,6- A,, z | %21
!<(! A,,2 A,,2 B,,2 B,,2!<)! |!>(! C,2 C,2 D,4!>)! | D,2 D,2 C,2 C,2 |!<(! D,2 D,4 C,2!<)! | %25
!>(! B,,2 B,,2 E,,4!>)! |!<(! A,,4 G,,4!<)! |!>(! F,,4 E,,4!>)! |!<(! D,,4 D,,4!<)! | %29
!>(! A,,2 G,,2 F,,2 E,,2!>)! |!<(! D,,8!<)! |!>(! E,,8!>)! | !fermata!E,,4 z4 | %33
!<(! A,,2 A,,2 B,,2 B,,2!<)! |!>(! C,2 C,2 D,4!>)! |!<(! D,2 D,2 C,2 C,2!<)! | %36
!>(! D,2 D,4 C,2!>)! |!<(! B,,2 B,,2 E,,3 z!<)! |!>(! A,,4 G,,4!>)! |!<(! F,,4 E,,4!<)! | %40
!>(! D,,4 D,,4!>)! |!<(! A,,2 G,,2 F,,2 E,,2!<)! |!>(! D,,8!>)! |!<(! C,,4 D,,4!<)! | %44
!>(! E,,8!>)! | =E,,6 F,,2 | F,,2 _E,,2 D,,2 D,,2 | E,,4 E,,4 | !fermata!A,,8 |] %49

